src/status/24/system-devices-panel-alert.svg

<svg viewBox="0 0 24 24" xmlns="http://www.w3.org/2000/svg">
 <path d="m11 4v8h2v-8z" fill="#bf616a"/>
 <path d="m15 9v2h5.3438c0.36933 0 0.65625-0.223 0.65625-0.5v-1c0-0.277-0.28692-0.5-0.65625-0.5h-5.3438zm0 4v2h5.3438c0.36933 0 0.65625-0.223 0.65625-0.5v-1c0-0.277-0.28692-0.5-0.65625-0.5h-5.3438zm0 4v2h5.3438c0.36933 0 0.65625-0.223 0.65625-0.5v-1c0-0.277-0.28692-0.5-0.65625-0.5h-5.3438z" fill="#bf616a"/>
 <path d="m9 4.594c-2.934 1.186-5 4.048-5 7.406 0 4.418 3.582 8 8 8 0.334 0 0.676-0.023 1-0.063v-2.031c-0.325 0.055-0.66 0.094-1 0.094-3.314 0-6-2.686-6-6 0-2.221 1.207-4.15 3-5.188v-2.219zm6 0v2.219c0.099 0.057 0.186 0.125 0.281 0.188h2.938c-0.845-1.057-1.941-1.89-3.219-2.406z" fill="#bf616a" fill-rule="evenodd"/>
</svg>

<svg xmlns="http://www.w3.org/2000/svg" viewBox="0 0 24 24">
 <path d="m 11 4 0 8 2 0 0 -8 z" style="fill:#bf616a;fill-opacity:1"/>
 <path d="m 15,9 0,2 5.34375,0 C 20.713081,11 21,10.777 21,10.5 l 0,-1 C 21,9.223 20.713081,9 20.34375,9 L 15,9 z m 0,4 0,2 5.34375,0 C 20.713081,15 21,14.777 21,14.5 l 0,-1 C 21,13.223 20.713081,13 20.34375,13 L 15,13 z m 0,4 0,2 5.34375,0 C 20.713081,19 21,18.777 21,18.5 l 0,-1 C 21,17.223 20.713081,17 20.34375,17 L 15,17 z" style="fill:#bf616a;fill-opacity:1;color:#000"/>
 <path d="m 9 4.594 c -2.934 1.186 -5 4.048 -5 7.406 c 0 4.418 3.582 8 8 8 0.334 0 0.676 -0.023 1 -0.063 l 0 -2.031 c -0.325 0.055 -0.66 0.094 -1 0.094 -3.314 0 -6 -2.686 -6 -6 0 -2.221 1.207 -4.15 3 -5.188 l 0 -2.219 z m 6 0 0 2.219 c 0.099 0.057 0.186 0.125 0.281 0.188 l 2.938 0 c -0.845 -1.057 -1.941 -1.89 -3.219 -2.406 z" style="fill:#bf616a;fill-opacity:1;fill-rule:evenodd"/>
</svg>
